svg/fluentui-system-icons/ic_fluent_text_column_one_wide_lightning_20_filled.svg

<svg width="20" height="20" viewBox="0 0 20 20" fill="none" xmlns="http://www.w3.org/2000/svg">
<path d="M3.75 5C3.33579 5 3 5.33579 3 5.75C3 6.16421 3.33579 6.5 3.75 6.5H16.25C16.6642 6.5 17 6.16421 17 5.75C17 5.33579 16.6642 5 16.25 5H3.75ZM3.75 8C3.33579 8 3 8.33579 3 8.75C3 9.16421 3.33579 9.5 3.75 9.5H12.2055C12.9039 9.179 13.681 9 14.5 9C15.243 9 15.9517 9.14735 16.5983 9.41441C16.8371 9.28897 17 9.03851 17 8.75C17 8.33579 16.6642 8 16.25 8H3.75ZM3.75 11H10.2572C9.88857 11.4463 9.58904 11.9518 9.37494 12.5H3.75C3.33579 12.5 3 12.1642 3 11.75C3 11.3358 3.33579 11 3.75 11ZM3.75 14H9.02242C9.00758 14.1647 9 14.3315 9 14.5C9 14.8415 9.03112 15.1757 9.09069 15.5H3.75C3.33579 15.5 3 15.1642 3 14.75C3 14.3358 3.33579 14 3.75 14ZM19 14.5C19 16.9853 16.9853 19 14.5 19C12.0147 19 10 16.9853 10 14.5C10 12.0147 12.0147 10 14.5 10C16.9853 10 19 12.0147 19 14.5ZM13.88 11.5C13.6678 11.5 13.4788 11.6339 13.4083 11.834L12.5284 14.334C12.4745 14.487 12.4982 14.6566 12.592 14.789C12.6857 14.9213 12.8378 15 13 15H13.7758L13.2675 16.8688C13.2028 17.1069 13.3214 17.3566 13.5468 17.4569C13.7723 17.5571 14.0372 17.4779 14.1706 17.2704L16.4206 13.7704C16.5195 13.6165 16.5265 13.4209 16.4389 13.2604C16.3512 13.0999 16.1829 13 16 13H15.2537L15.5343 12.1581C15.5852 12.0056 15.5596 11.838 15.4656 11.7076C15.3716 11.5773 15.2207 11.5 15.06 11.5H13.88Z" fill="#212121"/>
</svg>

<svg xmlns="http://www.w3.org/2000/svg" width="20" height="20"><path d="M3.75 5a.75.75 0 0 0 0 1.5h12.5a.75.75 0 0 0 0-1.5H3.75Zm0 3a.75.75 0 0 0 0 1.5h8.456A5.48 5.48 0 0 1 14.5 9c.743 0 1.452.147 2.098.414A.75.75 0 0 0 16.25 8H3.75Zm0 3h6.507a5.495 5.495 0 0 0-.882 1.5H3.75a.75.75 0 0 1 0-1.5Zm0 3h5.272a5.571 5.571 0 0 0 .069 1.5H3.75a.75.75 0 0 1 0-1.5Zm15.25.5a4.5 4.5 0 1 1-9 0 4.5 4.5 0 0 1 9 0Zm-5.12-3a.5.5 0 0 0-.472.334l-.88 2.5A.5.5 0 0 0 13 15h.776l-.508 1.869a.5.5 0 0 0 .903.401l2.25-3.5A.5.5 0 0 0 16 13h-.746l.28-.842a.5.5 0 0 0-.474-.658h-1.18Z"/></svg>
